Catalina-dark/actions/22/extract-archive.svg

<svg xmlns="http://www.w3.org/2000/svg" viewBox="0 0 22 22">
  <defs id="defs3051">
    <style type="text/css" id="current-color-scheme">
      .ColorScheme-Text {
        color:#f2f2f2
      }
      </style>
  </defs>
 <path 
     style="fill:currentColor;fill-opacity:1;stroke:none"      
	 class="ColorScheme-Text"
        d="M 4.5996094 3 C 4.15641 3 3.8007812 3.3575818 3.8007812 3.8007812 L 3.8007812 18.199219 C 3.8007812 18.642418 4.15641 19 4.5996094 19 L 17.400391 19 C 17.84359 19 18.199219 18.642418 18.199219 18.199219 L 18.199219 3.8007812 C 18.199219 3.3575818 17.84359 3 17.400391 3 L 4.5996094 3 z M 11 7.0019531 C 11.15455 6.9921862 11.311469 7.0437885 11.429688 7.1621094 L 14 10 C 14.218269 10.219067 14.218269 10.573902 14 10.792969 C 13.78172 11.012036 13.427526 11.012036 13.208984 10.792969 L 11 8.3535156 L 8.7929688 10.792969 C 8.574433 11.012036 8.2204889 11.012036 8.0019531 10.792969 C 7.7834119 10.573902 7.7834119 10.219067 8.0019531 10 L 10.570312 7.1621094 C 10.688542 7.0437396 10.845178 6.992197 11 7.0019531 z M 10.996094 10.517578 C 11.505049 10.517578 11.917969 10.931833 11.917969 11.441406 C 11.917969 11.950979 11.505049 12.363281 10.996094 12.363281 C 10.487139 12.363281 10.076172 11.950979 10.076172 11.441406 C 10.076172 10.931833 10.487139 10.517578 10.996094 10.517578 z M 10.996094 13.154297 C 11.505049 13.154297 11.917969 13.568557 11.917969 14.078125 C 11.917969 14.587698 11.505049 15 10.996094 15 C 10.487139 15 10.076172 14.587698 10.076172 14.078125 C 10.076172 13.568557 10.487139 13.154297 10.996094 13.154297 z "
     />
</svg>

<svg viewBox="0 0 22 22" xmlns="http://www.w3.org/2000/svg">
<defs>
<style id="current-color-scheme" type="text/css">.ColorScheme-Text {
        color:#f2f2f2
      }</style>
</defs>
<path class="ColorScheme-Text" d="m4.5996 3c-0.4432 0-0.79883 0.35758-0.79883 0.80078v14.398c0 0.4432 0.35563 0.80078 0.79883 0.80078h12.801c0.4432 0 0.79883-0.35758 0.79883-0.80078v-14.398c0-0.4432-0.35563-0.80078-0.79883-0.80078h-12.801zm6.4004 4.002c0.15455-0.0097669 0.31147 0.041835 0.42969 0.16016l2.5703 2.8379c0.21827 0.21907 0.21827 0.5739 0 0.79297-0.21828 0.21907-0.57247 0.21907-0.79102 0l-2.209-2.4395-2.207 2.4395c-0.21854 0.21907-0.57248 0.21907-0.79102 0s-0.21854-0.5739 0-0.79297l2.5684-2.8379c0.11823-0.11837 0.27487-0.16991 0.42969-0.16016zm-0.003906 3.5156c0.50896 0 0.92188 0.41426 0.92188 0.92383s-0.41292 0.92188-0.92188 0.92188-0.91992-0.4123-0.91992-0.92188 0.41097-0.92383 0.91992-0.92383zm0 2.6367c0.50896 0 0.92188 0.41426 0.92188 0.92383s-0.41292 0.92188-0.92188 0.92188-0.91992-0.4123-0.91992-0.92188c0-0.50957 0.41097-0.92383 0.91992-0.92383z" fill="currentColor"/>
</svg>
